humanity-icon-theme/Humanity/actions/24/go-bottom.svg

<?xml version="1.0" encoding="UTF-8" standalone="no"?>
<!-- Created with Inkscape (http://www.inkscape.org/) -->

<svg
   xmlns:dc="http://purl.org/dc/elements/1.1/"
   xmlns:cc="http://creativecommons.org/ns#"
   xmlns:rdf="http://www.w3.org/1999/02/22-rdf-syntax-ns#"
   xmlns:svg="http://www.w3.org/2000/svg"
   xmlns="http://www.w3.org/2000/svg"
   xmlns:xlink="http://www.w3.org/1999/xlink"
   version="1.1"
   width="24"
   height="24"
   id="svg3734">
  <metadata
     id="metadata29">
    <rdf:RDF>
      <cc:Work
         rdf:about="">
        <dc:format>image/svg+xml</dc:format>
        <dc:type
           rdf:resource="http://purl.org/dc/dcmitype/StillImage" />
        <dc:title></dc:title>
      </cc:Work>
    </rdf:RDF>
  </metadata>
  <defs
     id="defs3736">
    <linearGradient
       id="linearGradient4456">
      <stop
         id="stop4458"
         style="stop-color:#f6daae;stop-opacity:1"
         offset="0" />
      <stop
         id="stop4460"
         style="stop-color:#f0c178;stop-opacity:0"
         offset="1" />
    </linearGradient>
    <linearGradient
       id="linearGradient3390-178-986-453-4-5">
      <stop
         id="stop3624-8-6"
         style="stop-color:#bb2b12;stop-opacity:1"
         offset="0" />
      <stop
         id="stop3626-1-1"
         style="stop-color:#cd7233;stop-opacity:1"
         offset="1" />
    </linearGradient>
    <linearGradient
       x1="-55.189419"
       y1="191.51634"
       x2="-31.522509"
       y2="182.47969"
       id="linearGradient3732"
       xlink:href="#linearGradient3390-178-986-453-4-5"
       gradientUnits="userSpaceOnUse"
       gradientTransform="matrix(0.92956783,0,0,0.99594396,51.30231,-181.73954)" />
    <linearGradient
       id="linearGradient7012-661-145-733-759-865-745-661-970-94-1-0">
      <stop
         id="stop3618-1-9"
         style="stop-color:#f0c178;stop-opacity:1"
         offset="0" />
      <stop
         id="stop3270-5-6"
         style="stop-color:#e18941;stop-opacity:1"
         offset="0.5" />
      <stop
         id="stop3620-9-3"
         style="stop-color:#ec4f18;stop-opacity:1"
         offset="1" />
    </linearGradient>
    <linearGradient
       x1="-31.522509"
       y1="182.47969"
       x2="-55.189419"
       y2="191.51634"
       id="linearGradient4322"
       xlink:href="#linearGradient7012-661-145-733-759-865-745-661-970-94-1-0"
       gradientUnits="userSpaceOnUse"
       gradientTransform="matrix(0.92956783,0,0,0.99594396,51.30231,-181.73954)" />
    <linearGradient
       x1="-31.522509"
       y1="182.47969"
       x2="-55.189419"
       y2="191.51634"
       id="linearGradient4324"
       xlink:href="#linearGradient7012-661-145-733-759-865-745-661-970-94-1-0"
       gradientUnits="userSpaceOnUse"
       gradientTransform="matrix(0.92956783,0,0,0.99594396,51.30231,-181.73954)" />
    <linearGradient
       x1="-55.189419"
       y1="191.51634"
       x2="-31.522509"
       y2="182.47969"
       id="linearGradient4452"
       xlink:href="#linearGradient3390-178-986-453-4-5"
       gradientUnits="userSpaceOnUse"
       gradientTransform="matrix(0.92956783,0,0,0.99594396,51.30231,-181.73954)" />
    <linearGradient
       x1="22"
       y1="-8.8817842e-16"
       x2="0"
       y2="9"
       id="linearGradient4462"
       xlink:href="#linearGradient4456"
       gradientUnits="userSpaceOnUse" />
    <linearGradient
       x1="22"
       y1="-8.8817842e-16"
       x2="0"
       y2="9"
       id="linearGradient3026"
       xlink:href="#linearGradient4456"
       gradientUnits="userSpaceOnUse" />
    <linearGradient
       x1="-86.552246"
       y1="185.439"
       x2="-83.37072"
       y2="197.31261"
       id="linearGradient4040-8-9-7-4-2"
       xlink:href="#linearGradient4034-59-4-2-2-6"
       gradientUnits="userSpaceOnUse"
       gradientTransform="matrix(0,-1,1,0,-272,102)" />
    <linearGradient
       id="linearGradient4034-59-4-2-2-6">
      <stop
         id="stop4036-9-1-5-2-5"
         style="stop-color:#eeeeec;stop-opacity:1"
         offset="0" />
      <stop
         id="stop4038-0-5-5-6-2"
         style="stop-color:#babdb6;stop-opacity:1"
         offset="1" />
    </linearGradient>
    <linearGradient
       x1="-88"
       y1="159"
       x2="-82"
       y2="181"
       id="linearGradient2979"
       xlink:href="#linearGradient7012-661-145-733-759-865-745-661-970-94-1-0-7-1-5"
       gradientUnits="userSpaceOnUse"
       gradientTransform="matrix(0,-1,1,0,-272.57692,80)" />
    <linearGradient
       id="linearGradient7012-661-145-733-759-865-745-661-970-94-1-0-7-1-5">
      <stop
         id="stop3618-1-9-8-2-8"
         style="stop-color:#f0c178;stop-opacity:1"
         offset="0" />
      <stop
         id="stop3270-5-6-3-8-7"
         style="stop-color:#e18941;stop-opacity:1"
         offset="0.5" />
      <stop
         id="stop3620-9-3-0-8-9"
         style="stop-color:#ec4f18;stop-opacity:1"
         offset="1" />
    </linearGradient>
    <linearGradient
       id="linearGradient3390-178-986-453-4-5-1">
      <stop
         id="stop3624-8-6-8"
         style="stop-color:#bb2b12;stop-opacity:1"
         offset="0" />
      <stop
         id="stop3626-1-1-9"
         style="stop-color:#cd7233;stop-opacity:1"
         offset="1" />
    </linearGradient>
    <linearGradient
       x1="-51.576923"
       y1="162"
       x2="-73.576927"
       y2="168"
       id="linearGradient2908"
       xlink:href="#linearGradient3390-178-986-453-4-5-1"
       gradientUnits="userSpaceOnUse" />
    <linearGradient
       x1="-33.576923"
       y1="162"
       x2="-55.576923"
       y2="167"
       id="linearGradient3072"
       xlink:href="#linearGradient3390-178-986-453-4-5-1"
       gradientUnits="userSpaceOnUse" />
  </defs>
  <g
     transform="matrix(0,1,-1,0,177,75.576924)"
     id="g6115-7"
     style="display:inline;enable-background:new">
    <g
       transform="translate(-1,0)"
       id="g4018-8"
       style="stroke:url(#linearGradient3072);stroke-opacity:1">
      <path
         d="m -53.576924,158 0,14"
         id="path3395-1"
         style="fill:none;stroke:url(#linearGradient2908);stroke-width:4;stroke-linecap:round;stroke-linejoin:miter;stroke-miterlimit:4;stroke-opacity:1;stroke-dasharray:none;display:inline;enable-background:new" />
    </g>
  </g>
  <g
     transform="matrix(0,-1,1,0,7,22)"
     id="layer1">
    <path
       d="M 7.65,-0.525 2.5,4.99993 7.65,10.525"
       id="path3169-2-3"
       style="fill:none;stroke:url(#linearGradient3732);stroke-width:5;stroke-linecap:round;stroke-linejoin:round;stroke-miterlimit:4;stroke-opacity:1;stroke-dasharray:none;display:inline;enable-background:new" />
    <path
       d="M 18,5 6.5,4.99993"
       id="path3765"
       style="fill:none;stroke:url(#linearGradient4452);stroke-width:6;stroke-linecap:round;stroke-linejoin:round;stroke-miterlimit:4;stroke-opacity:1;stroke-dasharray:none;display:inline;enable-background:new" />
    <path
       d="M 7.75009,-0.6251675 2.5,4.99993 7.750153,10.624983"
       id="path4277"
       style="fill:none;stroke:url(#linearGradient4322);stroke-width:3;stroke-linecap:round;stroke-linejoin:round;stroke-miterlimit:4;stroke-opacity:1;stroke-dasharray:none;display:inline;enable-background:new" />
    <path
       d="M 18,5 6.5,4.99993"
       id="path4279"
       style="fill:none;stroke:url(#linearGradient4324);stroke-width:4;stroke-linecap:round;stroke-linejoin:round;stroke-miterlimit:4;stroke-opacity:1;stroke-dasharray:none;display:inline;enable-background:new" />
    <path
       d="M 8.28125,9.64375 6.5,8 C 5.4606912,7.0409186 6.5,6.5 8,6.5 l 9.4,0 c 3,0 2.5,-3 0,-3 l -8.9,0 C 7,3.5 5.5,3.5 6.5,2 L 8.14375,0.76875 c 1.5,-2 -0.5,-2.5 -1.5,-1.5 L 2,4 C 1.5,4.5 1.4724356,5.3333333 2,6 l 4.78125,5.14375 c 1,1 3.0589632,-0.06138 1.5,-1.5 z"
       id="path4454"
       style="opacity:0.4;fill:none;stroke:url(#linearGradient3026);stroke-width:1;stroke-linecap:round;stroke-linejoin:round;stroke-miterlimit:4;stroke-opacity:1;stroke-dasharray:none;display:inline;enable-background:new" />
    <path
       d="M 6.5,2 8.35,0.49375 c 1.5,-2 -0.5,-2.5 -1.5,-1.5 L 2,4 m 0,2 4.7125,5.28125 c 1,1 2.9701984,0.02922 1.5,-1.5 L 6.5,8"
       id="path4464"
       style="opacity:0.4;fill:none;stroke:url(#linearGradient4462);stroke-width:1;stroke-linecap:round;stroke-linejoin:round;stroke-miterlimit:4;stroke-opacity:1;stroke-dasharray:none;display:inline;enable-background:new" />
    <path
       d="M 8.7264239,-0.09337158 6.3063674,2.3669234"
       id="path4466"
       style="opacity:0.51000001;fill:none;stroke:#f6daae;stroke-width:1;stroke-linecap:round;stroke-linejoin:round;stroke-miterlimit:4;stroke-opacity:1;stroke-dasharray:none;display:inline;enable-background:new" />
  </g>
  <g
     transform="matrix(0,1,-1,0,177,114.57692)"
     id="g4030-5"
     style="stroke:url(#linearGradient4040-8-9-7-4-2);display:inline;enable-background:new">
    <path
       d="m -93.57692,158 0,14"
       id="path3397-3"
       style="fill:none;stroke:url(#linearGradient2979);stroke-width:2;stroke-linecap:round;stroke-linejoin:miter;stroke-miterlimit:4;stroke-opacity:1;stroke-dasharray:none;display:inline;enable-background:new" />
  </g>
  <path
     d="M 14.2,20.500004 19,20.5 M 4.5,20.906 C 4.5437,20.676799 4.7667,20.495888 5,20.5 l 4.630769,4e-6"
     id="path3397-6-7"
     style="font-size:medium;font-style:normal;font-variant:normal;font-weight:normal;font-stretch:normal;text-indent:0;text-align:start;text-decoration:none;line-height:normal;letter-spacing:normal;word-spacing:normal;text-transform:none;direction:ltr;block-progression:tb;writing-mode:lr-tb;text-anchor:start;opacity:0.4;color:#000000;fill:none;stroke:#f6daae;stroke-width:1;stroke-linecap:round;stroke-opacity:1;marker:none;visibility:visible;display:inline;overflow:visible;enable-background:new;font-family:Abandoned Bitplane;-inkscape-font-specification:Abandoned Bitplane" />
</svg>

<?xml version="1.0" encoding="UTF-8" standalone="no"?>
<!-- Created with Inkscape (http://www.inkscape.org/) -->
<svg id="svg3734" xmlns:rdf="http://www.w3.org/1999/02/22-rdf-syntax-ns#" xmlns="http://www.w3.org/2000/svg" height="24" width="24" version="1.1" xmlns:cc="http://creativecommons.org/ns#" xmlns:xlink="http://www.w3.org/1999/xlink" xmlns:dc="http://purl.org/dc/elements/1.1/">
 <metadata id="metadata29">
  <rdf:RDF>
   <cc:Work rdf:about="">
    <dc:format>image/svg+xml</dc:format>
    <dc:type rdf:resource="http://purl.org/dc/dcmitype/StillImage"/>
    <dc:title/>
   </cc:Work>
  </rdf:RDF>
 </metadata>
 <defs id="defs3736">
  <linearGradient id="linearGradient4456">
   <stop id="stop4458" style="stop-color:#f6daae" offset="0"/>
   <stop id="stop4460" style="stop-color:#f0c178;stop-opacity:0" offset="1"/>
  </linearGradient>
  <linearGradient id="linearGradient3390-178-986-453-4-5">
   <stop id="stop3624-8-6" style="stop-color:#bb2b12" offset="0"/>
   <stop id="stop3626-1-1" style="stop-color:#cd7233" offset="1"/>
  </linearGradient>
  <linearGradient id="linearGradient3732" y2="182.48" xlink:href="#linearGradient3390-178-986-453-4-5" gradientUnits="userSpaceOnUse" x2="-31.523" gradientTransform="matrix(.92957 0 0 .99594 51.302 -181.74)" y1="191.52" x1="-55.189"/>
  <linearGradient id="linearGradient7012-661-145-733-759-865-745-661-970-94-1-0">
   <stop id="stop3618-1-9" style="stop-color:#f0c178" offset="0"/>
   <stop id="stop3270-5-6" style="stop-color:#e18941" offset=".5"/>
   <stop id="stop3620-9-3" style="stop-color:#ec4f18" offset="1"/>
  </linearGradient>
  <linearGradient id="linearGradient4322" y2="191.52" xlink:href="#linearGradient7012-661-145-733-759-865-745-661-970-94-1-0" gradientUnits="userSpaceOnUse" x2="-55.189" gradientTransform="matrix(.92957 0 0 .99594 51.302 -181.74)" y1="182.48" x1="-31.523"/>
  <linearGradient id="linearGradient4462" y2="9" xlink:href="#linearGradient4456" gradientUnits="userSpaceOnUse" x2="0" y1="-8.8818e-16" x1="22"/>
  <linearGradient id="linearGradient4040-8-9-7-4-2" y2="197.31" gradientUnits="userSpaceOnUse" x2="-83.371" gradientTransform="matrix(0,-1,1,0,-272,102)" y1="185.44" x1="-86.552">
   <stop id="stop4036-9-1-5-2-5" style="stop-color:#eeeeec" offset="0"/>
   <stop id="stop4038-0-5-5-6-2" style="stop-color:#babdb6" offset="1"/>
  </linearGradient>
  <linearGradient id="linearGradient2979" y2="181" gradientUnits="userSpaceOnUse" x2="-82" gradientTransform="matrix(0 -1 1 0 -272.58 80)" y1="159" x1="-88">
   <stop id="stop3618-1-9-8-2-8" style="stop-color:#f0c178" offset="0"/>
   <stop id="stop3270-5-6-3-8-7" style="stop-color:#e18941" offset=".5"/>
   <stop id="stop3620-9-3-0-8-9" style="stop-color:#ec4f18" offset="1"/>
  </linearGradient>
  <linearGradient id="linearGradient2908" y2="168" xlink:href="#linearGradient3390-178-986-453-4-5" gradientUnits="userSpaceOnUse" x2="-73.577" y1="162" x1="-51.577"/>
  <linearGradient id="linearGradient3072" y2="167" xlink:href="#linearGradient3390-178-986-453-4-5" gradientUnits="userSpaceOnUse" x2="-55.577" y1="162" x1="-33.577"/>
 </defs>
 <g id="g6115-7" style="enable-background:new" transform="matrix(0 1 -1 0 177 75.577)">
  <g id="g4018-8" style="stroke:url(#linearGradient3072)" transform="translate(-1)">
   <path id="path3395-1" style="stroke-width:4;stroke:url(#linearGradient2908);stroke-linecap:round;enable-background:new;fill:none" d="m-53.577 158v14"/>
  </g>
 </g>
 <g id="layer1" transform="matrix(0,-1,1,0,7,22)">
  <path id="path3169-2-3" style="stroke-linejoin:round;stroke-width:5;stroke:url(#linearGradient3732);stroke-linecap:round;enable-background:new;fill:none" d="m7.65-0.525-5.15 5.5249 5.15 5.5251"/>
  <path id="path3765" style="stroke-linejoin:round;enable-background:new;stroke:url(#linearGradient3732);stroke-linecap:round;stroke-width:6;fill:none" d="m18 5-11.5-0.0001"/>
  <path id="path4277" style="stroke-linejoin:round;stroke-width:3;stroke:url(#linearGradient4322);stroke-linecap:round;enable-background:new;fill:none" d="m7.7501-0.62517-5.2501 5.6251 5.2502 5.6251"/>
  <path id="path4279" style="stroke-linejoin:round;enable-background:new;stroke:url(#linearGradient4322);stroke-linecap:round;stroke-width:4;fill:none" d="m18 5-11.5-0.0001"/>
  <path id="path4454" style="opacity:.4;stroke-linejoin:round;enable-background:new;stroke:url(#linearGradient4462);stroke-linecap:round;fill:none" d="m8.2812 9.6438-1.7812-1.6438c-1.0393-0.9591 0-1.5 1.5-1.5h9.4c3 0 2.5-3 0-3h-8.9c-1.5 0-3 0-2-1.5l1.6438-1.2312c1.5-2-0.5-2.5-1.5-1.5l-4.6438 4.7312c-0.5 0.5-0.5276 1.3333 0 2l4.7812 5.1438c1 1 3.059-0.06138 1.5-1.5z"/>
  <path id="path4464" style="opacity:.4;stroke-linejoin:round;stroke:url(#linearGradient4462);stroke-linecap:round;enable-background:new;fill:none" d="m6.5 2 1.85-1.5062c1.5-2-0.5-2.5-1.5-1.5l-4.85 5.0062m0 2 4.7125 5.2812c1 1 2.9702 0.02922 1.5-1.5l-1.7125-1.781"/>
  <path id="path4466" style="opacity:0.51;stroke-linejoin:round;stroke:#f6daae;stroke-linecap:round;enable-background:new;fill:none" d="m8.7264-0.093372-2.42 2.4603"/>
 </g>
 <g id="g4030-5" style="stroke:url(#linearGradient4040-8-9-7-4-2);enable-background:new" transform="matrix(0 1 -1 0 177 114.58)">
  <path id="path3397-3" style="stroke-width:2;stroke:url(#linearGradient2979);stroke-linecap:round;enable-background:new;fill:none" d="m-93.577 158v14"/>
 </g>
 <path id="path3397-6-7" style="opacity:.4;enable-background:new;block-progression:tb;text-indent:0;color:#000000;stroke:#f6daae;stroke-linecap:round;text-transform:none;fill:none" d="m14.2 20.5h4.8m-14.5 0.406c0.0437-0.229 0.2667-0.41 0.5-0.406l4.6308 0.000004"/>
</svg>
